X: 25005
T: Maid On The Green, The
R: jig
M: 6/8
K: Gmajor
d|:gfg e2d|Bee dBA|AGG dGG|BAG ABd|
gfg e2d|Bee dBA|AGG dBA|BGF GBd:|
|:g3 afd|g3 a3|bag agf|gef g2a|
bag agf|gfg e2d|Bee dBA|1 BGF GBd:|2 BGF G3||

